X:145
T:Maid of the mill - 1st tune
%%VWML:SBG-1-2-341-0
F:http://www.vwml.org/record/SBG/1/2/341
Z:Original Sibelius transcriptions by M. & S. Graebe
M:6/8
I:linebreak $
K:Bb
V:1 treble nm="P1"
V:1
 d2 | G4 AB c4 d2 | e4 dc B4 A2 | B4 AG ^F4 =ED | (G6 G4) d2 | G4 AB c4 d2 | e4 dc B4 A2 |$ %7
 B4 AG ^F4 =ED | (G6 G4) G2 | F4 ED G4 G2 | A4 GA B4 d2 | e4 dc B4 A2 | G6 z4 x2 | %13
T:Maid of the mill - Skylark
F:http://www.vwml.org/record/SBG/1/2/341
Z:Original Sibelius transcriptions by M. & S. Graebe
M:6/8
I:linebreak $
K:A
V:1 treble nm="P1"
V:1
 E | E A A A c A | G A B e2 A | F F F F G E | A3 z2 E | E A A A c A | G A B e2 G |$ F F F F F G | %8
 E3 z2 E/ E/ | E e e e3/2 f/ e | e d c d2 c | B B c d2 f |$ (A3 G2) E | F G A d2 B | %14
 G A B !fermata!e2 c/A/ | F F F FG E | A2 z2 z x | %17

